assets/icons/24px/outline/mouse-rectangular-wired-24px.svg

<svg width="24" height="24" viewBox="0 0 24 24" fill="none" xmlns="http://www.w3.org/2000/svg">
<path d="M12 21C10.1144 21 9.17157 21 8.58579 20.4142C8 19.8284 8 18.8856 8 17L8 13C8 11.1144 8 10.1716 8.58579 9.58579C9.17157 9 10.1144 9 12 9V9V9C13.8856 9 14.8284 9 15.4142 9.58579C16 10.1716 16 11.1144 16 13L16 17C16 18.8856 16 19.8284 15.4142 20.4142C14.8284 21 13.8856 21 12 21V21Z" stroke="white" stroke-width="2" stroke-linecap="round" stroke-linejoin="round"/>
<path d="M12 11.5L12 8.30789C12 7.62222 12 7.27938 12.0633 7.03372C12.3199 6.03886 13.2884 5.40019 14.3039 5.5563C14.5547 5.59485 14.8698 5.7299 15.5 6V6C16.1302 6.2701 16.4453 6.40515 16.6961 6.4437C17.7116 6.59981 18.6801 5.96114 18.9367 4.96628C19 4.72062 19 4.37778 19 3.69212L19 3" stroke="white" stroke-width="2" stroke-linecap="round" stroke-linejoin="round"/>
</svg>

<svg width="24" height="24" fill="none" xmlns="http://www.w3.org/2000/svg"><path d="M12 21c-1.886 0-2.828 0-3.414-.586C8 19.828 8 18.886 8 17v-4c0-1.886 0-2.828.586-3.414C9.172 9 10.114 9 12 9c1.886 0 2.828 0 3.414.586C16 10.172 16 11.114 16 13v4c0 1.886 0 2.828-.586 3.414C14.828 21 13.886 21 12 21z" stroke="#fff" stroke-width="2" stroke-linecap="round" stroke-linejoin="round"/><path d="M12 11.5V8.308c0-.686 0-1.029.063-1.274a2 2 0 0 1 2.24-1.478c.252.039.567.174 1.197.444.63.27.945.405 1.196.444a2 2 0 0 0 2.24-1.478C19 4.721 19 4.378 19 3.692V3" stroke="#fff" stroke-width="2" stroke-linecap="round" stroke-linejoin="round"/></svg>
